modules/stroke-7/icons/pendrive.svg

<?xml version="1.0" encoding="utf-8"?>
<!-- Generated by IcoMoon.io -->
<!DOCTYPE svg PUBLIC "-//W3C//DTD SVG 1.1//EN" "http://www.w3.org/Graphics/SVG/1.1/DTD/svg11.dtd">
<svg version="1.1" xmlns="http://www.w3.org/2000/svg" xmlns:xlink="http://www.w3.org/1999/xlink" width="15" height="32" viewBox="0 0 15 32">
<g id="icomoon-ignore">
</g>
<path d="M11.733 10.133v-8.533h-8.533v8.533h-3.2v17.333c0 1.6 1.333 2.933 2.933 2.933h9.067c1.6 0 2.933-1.333 2.933-2.933v-17.333h-3.2zM4.267 2.667h6.4v7.467h-6.4v-7.467zM13.867 27.467c0 1.013-0.853 1.867-1.867 1.867h-9.067c-1.013 0-1.867-0.853-1.867-1.867v-16.267h12.8v16.267z" fill="#000000"></path>
<path d="M5.333 4.267h1.067v2.667h-1.067v-2.667z" fill="#000000"></path>
<path d="M8.533 4.267h1.067v2.667h-1.067v-2.667z" fill="#000000"></path>
</svg>

<svg xmlns="http://www.w3.org/2000/svg" width="15" height="32" viewBox="0 0 15 32"><path d="M11.733 10.133V1.6H3.2v8.533H0v17.333c0 1.6 1.333 2.933 2.933 2.933H12c1.6 0 2.933-1.333 2.933-2.933V10.133h-3.2zM4.267 2.667h6.4v7.467h-6.4V2.667zm9.6 24.8A1.89 1.89 0 0 1 12 29.334H2.933a1.89 1.89 0 0 1-1.867-1.867V11.2h12.8v16.267z"/><path d="M5.333 4.267H6.4v2.667H5.333V4.267zM8.533 4.267H9.6v2.667H8.533V4.267z"/></svg>
